X: 41761
T: Vankarin Polska
R: three-two
M: 3/2
K: Amajor
a4 e2 d2 cd e2|=g3 e f2 d2 B2 ed|c2 A2 f2 ed e2 c2|B2 e2 f2 ef g2 fg|
a4 e2 d2 cd e2|=g3 e f2 d2 B2 ed|c2 A2 f2 ed e2 c2|B2 AG A8:|
|:F2 A2 A2 e2 d2 c2|B3 c BAGF G2 E2|F2 A2 A2 e2 d2 c2|B2 A2 G2 F2 E4|
F2 A2 A2 e2 d2 c2|B2 e2 f2 ef g2 fg|a4 f2 ed e2 c2|1 B2 AG A4 A2 G2:|2 B2 AG A8||

